flaticon/army-badges/bomb-1.svg

<svg xmlns="http://www.w3.org/2000/svg" width="32" height="32" viewBox="0 0 24 24">
    <path d="M 18.398438 5.558594 L 17.601562 0.761719 C 17.558594 0.640625 17.519531 0.519531 17.398438 0.480469 C 17.28125 0.398438 17.160156 0.398438 17.039062 0.441406 L 13.199219 1.835938 L 13.199219 0.398438 C 13.199219 0.160156 13.039062 0 12.800781 0 L 11.199219 0 C 10.960938 0 10.800781 0.160156 10.800781 0.398438 L 10.800781 1.851562 L 6.921875 0.441406 C 6.839844 0.398438 6.71875 0.398438 6.601562 0.480469 C 6.480469 0.558594 6.398438 0.640625 6.398438 0.761719 L 5.601562 5.558594 C 5.558594 5.71875 5.640625 5.878906 5.761719 5.960938 L 8.648438 8.046875 C 8.453125 8.496094 8.277344 8.953125 8.117188 9.417969 C 8.105469 9.441406 8.097656 9.464844 8.09375 9.488281 C 7.929688 9.972656 7.789062 10.460938 7.671875 10.957031 C 7.625 11.023438 7.601562 11.105469 7.601562 11.199219 C 7.601562 11.21875 7.601562 11.234375 7.601562 11.253906 C 7.339844 12.453125 7.199219 13.683594 7.199219 14.921875 L 7.199219 19.199219 C 7.199219 21.683594 9.054688 23.683594 11.425781 23.964844 C 11.441406 23.96875 11.460938 23.96875 11.480469 23.972656 C 11.492188 23.972656 11.507812 23.976562 11.523438 23.976562 C 11.652344 23.988281 11.785156 23.996094 11.921875 24 C 11.921875 24 11.960938 24 12 24 C 12.691406 24 13.351562 23.859375 13.945312 23.589844 C 15.625 22.851562 16.800781 21.175781 16.800781 19.199219 L 16.800781 14.921875 C 16.800781 12.566406 16.292969 10.210938 15.347656 8.046875 L 18.238281 5.960938 C 18.359375 5.878906 18.441406 5.71875 18.398438 5.558594 Z M 11.601562 0.800781 L 12.398438 0.800781 L 12.398438 2.238281 C 12.375 2.289062 12.359375 2.34375 12.359375 2.398438 L 12.359375 4.601562 C 12.359375 4.652344 12.378906 4.703125 12.398438 4.757812 L 12.398438 8 C 12.398438 8.238281 12.238281 8.398438 12 8.398438 C 11.761719 8.398438 11.601562 8.238281 11.601562 8 Z M 6.441406 5.441406 L 7.121094 1.359375 L 10.800781 2.679688 L 10.800781 4.425781 C 10.101562 5.324219 9.496094 6.296875 8.992188 7.3125 Z M 16 19.199219 C 16 19.269531 16 19.335938 15.996094 19.402344 C 15.945312 20.402344 15.511719 21.328125 14.800781 22.039062 C 14.050781 22.789062 13.027344 23.1875 11.960938 23.199219 C 11.914062 23.199219 11.863281 23.199219 11.816406 23.195312 C 11.804688 23.195312 11.792969 23.195312 11.78125 23.195312 C 11.730469 23.191406 11.679688 23.1875 11.628906 23.183594 C 11.609375 23.179688 11.585938 23.179688 11.566406 23.175781 C 11.53125 23.171875 11.5 23.167969 11.464844 23.164062 C 11.417969 23.15625 11.375 23.148438 11.328125 23.140625 C 11.324219 23.140625 11.324219 23.140625 11.320312 23.140625 C 9.441406 22.800781 8 21.066406 8 19.039062 L 8 18.960938 C 10.601562 19.800781 13.398438 19.800781 16 18.960938 Z M 16 18.136719 C 13.425781 19.054688 10.574219 19.058594 8 18.152344 L 8 14.921875 C 8 13.800781 8.121094 12.6875 8.347656 11.601562 L 9.601562 11.601562 C 9.839844 11.601562 10 11.441406 10 11.199219 C 10 10.960938 9.839844 10.800781 9.601562 10.800781 L 8.539062 10.800781 C 8.609375 10.53125 8.6875 10.265625 8.773438 10 L 10.398438 10 C 10.640625 10 10.800781 9.839844 10.800781 9.601562 C 10.800781 9.359375 10.640625 9.199219 10.398438 9.199219 L 9.050781 9.199219 C 9.1875 8.839844 9.332031 8.484375 9.492188 8.136719 C 9.503906 8.117188 9.511719 8.097656 9.519531 8.078125 C 9.535156 8.050781 9.546875 8.019531 9.5625 7.992188 C 9.917969 7.230469 10.332031 6.496094 10.800781 5.800781 L 10.800781 8 C 10.800781 8.679688 11.320312 9.199219 12 9.199219 C 12.679688 9.199219 13.199219 8.679688 13.199219 8 L 13.199219 5.898438 C 13.675781 6.609375 14.09375 7.347656 14.441406 8.121094 C 14.472656 8.152344 14.507812 8.1875 14.542969 8.21875 C 15.488281 10.316406 16 12.605469 16 14.921875 Z M 15.003906 7.316406 C 14.5 6.296875 13.898438 5.324219 13.199219 4.425781 L 13.199219 2.679688 L 16.878906 1.359375 L 17.558594 5.441406 Z M 15.003906 7.316406"/>
</svg>

<svg xmlns="http://www.w3.org/2000/svg" width="32" height="32" viewBox="0 0 24 24">
    <path d="M18.398 5.559L17.602.762C17.559.64 17.52.52 17.398.48a.373.373 0 0 0-.359-.039L13.2 1.836V.398C13.2.16 13.04 0 12.801 0h-1.602c-.238 0-.398.16-.398.398v1.454L6.92.442C6.84.397 6.72.397 6.602.48c-.12.079-.203.16-.203.282l-.796 4.797c-.043.16.039.32.16.402l2.886 2.086a18.762 18.762 0 0 0-.554 1.441c-.164.485-.305.973-.422 1.469a.412.412 0 0 0-.07.242v.055c-.262 1.2-.403 2.43-.403 3.668v4.277a4.786 4.786 0 0 0 4.227 4.766c.015.004.035.004.054.008.012 0 .028.004.043.004.13.011.262.02.399.023H12c.691 0 1.352-.14 1.945-.41a4.779 4.779 0 0 0 2.856-4.39v-4.278c0-2.356-.508-4.711-1.453-6.875l2.89-2.086a.379.379 0 0 0 .16-.402zM11.602.8h.796v1.437a.387.387 0 0 0-.039.16v2.204c0 .05.02.101.04.156V8c0 .238-.16.398-.399.398-.238 0-.398-.16-.398-.398zm-5.16 4.64l.68-4.082L10.8 2.68v1.747c-.7.898-1.305 1.87-1.809 2.886zM16 19.2c0 .07 0 .137-.004.203-.05 1-.484 1.926-1.195 2.637-.75.75-1.774 1.148-2.84 1.16-.047 0-.098 0-.145-.004h-.035l-.152-.011c-.02-.004-.043-.004-.063-.008l-.101-.012-.137-.023h-.008C9.441 22.8 8 21.066 8 19.039v-.078c2.602.84 5.398.84 8 0zm0-1.062a12.037 12.037 0 0 1-8 .015v-3.23c0-1.121.121-2.235.348-3.32h1.254c.238 0 .398-.16.398-.403 0-.238-.16-.398-.398-.398H8.539c.07-.27.149-.535.234-.801h1.625c.243 0 .403-.16.403-.398 0-.243-.16-.403-.403-.403H9.051a16.885 16.885 0 0 1 .469-1.12c.015-.028.027-.06.043-.087A16.11 16.11 0 0 1 10.8 5.801V8c0 .68.52 1.2 1.199 1.2.68 0 1.2-.52 1.2-1.2V5.898c.476.711.894 1.45 1.241 2.223.032.031.067.066.102.098A16.349 16.349 0 0 1 16 14.922zm-.996-10.82a16.887 16.887 0 0 0-1.805-2.891V2.68l3.68-1.32.68 4.081zm0 0"/>
</svg>
